X: 3
T:Wilt Thou Meet Me There Love. HS.03
M:2/4
Q:50
C:"Nat.Quads.No.2,English"
S:Henry Stables MS,Cumbria,late19thC
R:misc
O:Walthwaite,nr.Ambleside.
A:England
Z:vmp.Chris Partington
K:D
"with feeling"A/-G/|F>G Ad|f>e dB|A>B AF|BE EA/G/|!
F>G Ad|f>e dB|A<d ef|edd::!
"cr"d|f>f fe|^df eg|e>e ed|ce df|!
fc d^d|eB cd|e/^d/e/f/ e/=d/c/B/|A/^G/A/B/"D.C." A/=G/F/E/||
